svgs/vrt_nws.svg

<svg xmlns="http://www.w3.org/2000/svg" viewBox="0 0 192 192"><path d="M144.086 173.443c-3.151-1.496-6.646-4.469-7.766-6.607-1.932-3.689-1.779-3.913 2.999-4.385 3.265-.322 5.735.408 7.025 2.077 2.412 3.122 11.688 2.62 11.688-.632 0-2.489-2.062-3.591-12.293-6.575-8.17-2.383-11.204-7.102-9.264-14.414 2.325-8.766 19.676-11.283 27.4-3.974 4.505 4.262 4.21 9.243-.548 9.243-2.059 0-5.009-1.399-6.557-3.11-3.046-3.366-5.654-3.842-9.249-1.688-4.022 2.41-.65 6.005 6.699 7.14 16.548 2.556 20.011 17.661 5.376 23.448-7.127 2.817-8.574 2.768-15.51-.523ZM25.739 155.174v-19.438h5.751c3.164 0 5.752.718 5.752 1.595 0 .894 2.253.493 5.13-.915 6.735-3.295 15.058-1.808 19.45 3.475 2.866 3.448 3.358 6.286 3.358 19.38v15.34h-9.86v-12.094c0-13.119-2.574-19.006-8.311-19.006-1.756 0-4.672 1.4-6.48 3.11-2.739 2.592-3.287 5.183-3.287 15.55v12.44H25.739Zm53.466 13.882c-2.066-4.678-4.448-11.87-10.134-30.599-.669-2.204.216-2.721 4.661-2.721h5.486l3.986 14.384 3.987 14.384 3.702-10.885c2.036-5.987 3.74-12.46 3.785-14.384.069-2.9 1.004-3.499 5.459-3.499h5.376l3.993 14.384 3.994 14.384 3.926-12.44a7752.388 7752.388 0 0 1 4.548-14.384c.679-2.123 10.585-2.744 10.585-.663 0 2.194-7.677 25.626-10.438 31.859-2.458 5.549-3.023 5.897-8.83 5.443-6.014-.47-6.303-.772-9.401-9.806l-3.197-9.321-3.282 9.709c-3.265 9.658-3.316 9.71-9.518 9.71-5.596 0-6.486-.569-8.688-5.555ZM35.786 82.932c-3.632-7.988-11.421-27.421-16.731-41.739L16 32.953l9.077.465 9.077.465 7.209 20.833c3.966 11.458 7.894 21.48 8.73 22.271.931.881 4.588-7.344 9.436-21.222l7.917-22.66h8.727c4.8 0 8.728.353 8.728.785 0 1.295-15.843 41.402-19.499 49.364l-3.392 7.387H39.29Zm51.854 6.672c-1.73-1.637-1.277-22.893.671-31.485 3.608-15.918 15.343-25.014 32.271-25.014h8.69V47.1l-6.162.006c-14.901.014-21.241 10.236-19.773 31.879l.791 11.656h-7.696c-4.233 0-8.19-.467-8.792-1.037Zm57.425-3.687c-6.468-5.374-9.219-14.195-9.219-29.563V47.1h16.434v11.317c0 15.151 2.473 18.641 12.723 17.951 7.292-.49 7.485-.382 9.621 5.393 2.109 5.702 2.045 5.941-1.972 7.386-2.284.821-8.146 1.494-13.027 1.494-7.541 0-9.728-.71-14.56-4.724Zm11.578-44.195c-10.734-3.622-19.154-13.539-19.154-22.562 0-2.707 1.057-3.16 7.364-3.16 6.503 0 7.486.459 8.405 3.924 1.364 5.14 6.658 8.516 13.356 8.516 5.368 0 5.387.027 5.387 7.775 0 7.462-.182 7.772-4.52 7.707-2.485-.038-7.362-1.028-10.838-2.2Z"/></svg>

<svg
    xmlns="http://www.w3.org/2000/svg"
    viewBox="0 0 192 192"
    id="vector">
    <g id="group">
        <path
            id="path_6"
            d="M 144.086 173.443 C 140.935 171.947 137.44 168.974 136.32 166.836 C 134.388 163.147 134.541 162.923 139.319 162.451 C 142.584 162.129 145.054 162.859 146.344 164.528 C 148.756 167.65 158.032 167.148 158.032 163.896 C 158.032 161.407 155.97 160.305 145.739 157.321 C 137.569 154.938 134.535 150.219 136.475 142.907 C 138.8 134.141 156.151 131.624 163.875 138.933 C 168.38 143.195 168.085 148.176 163.327 148.176 C 161.268 148.176 158.318 146.777 156.77 145.066 C 153.724 141.7 151.116 141.224 147.521 143.378 C 143.499 145.788 146.871 149.383 154.22 150.518 C 170.768 153.074 174.231 168.179 159.596 173.966 C 152.469 176.783 151.022 176.734 144.086 173.443 Z M 25.739 155.174 L 25.739 135.736 L 31.49 135.736 C 34.654 135.736 37.242 136.454 37.242 137.331 C 37.242 138.225 39.495 137.824 42.372 136.416 C 49.107 133.121 57.43 134.608 61.822 139.891 C 64.688 143.339 65.18 146.177 65.18 159.271 L 65.18 174.611 L 55.32 174.611 L 55.32 162.517 C 55.32 149.398 52.746 143.511 47.009 143.511 C 45.253 143.511 42.337 144.911 40.529 146.621 C 37.79 149.213 37.242 151.804 37.242 162.171 L 37.242 174.611 L 25.739 174.611 Z M 79.205 169.056 C 77.139 164.378 74.757 157.186 69.071 138.457 C 68.402 136.253 69.287 135.736 73.732 135.736 L 79.218 135.736 L 83.204 150.12 L 87.191 164.504 L 90.893 153.619 C 92.929 147.632 94.633 141.159 94.678 139.235 C 94.747 136.335 95.682 135.736 100.137 135.736 L 105.513 135.736 L 109.506 150.12 L 113.5 164.504 L 117.426 152.064 C 119.585 145.222 121.631 138.749 121.974 137.68 C 122.653 135.557 132.559 134.936 132.559 137.017 C 132.559 139.211 124.882 162.643 122.121 168.876 C 119.663 174.425 119.098 174.773 113.291 174.319 C 107.277 173.849 106.988 173.547 103.89 164.513 L 100.693 155.192 L 97.411 164.901 C 94.146 174.559 94.095 174.611 87.893 174.611 C 82.297 174.611 81.407 174.042 79.205 169.056 Z M 35.786 82.932 C 32.154 74.944 24.365 55.511 19.055 41.193 L 16 32.953 L 25.077 33.418 L 34.154 33.883 L 41.363 54.716 C 45.329 66.174 49.257 76.196 50.093 76.987 C 51.024 77.868 54.681 69.643 59.529 55.765 L 67.446 33.105 L 76.173 33.105 C 80.973 33.105 84.901 33.458 84.901 33.89 C 84.901 35.185 69.058 75.292 65.402 83.254 L 62.01 90.641 L 39.29 90.641 Z M 87.64 89.604 C 85.91 87.967 86.363 66.711 88.311 58.119 C 91.919 42.201 103.654 33.105 120.582 33.105 L 129.272 33.105 L 129.272 47.1 L 123.11 47.106 C 108.209 47.12 101.869 57.342 103.337 78.985 L 104.128 90.641 L 96.432 90.641 C 92.199 90.641 88.242 90.174 87.64 89.604 Z M 145.065 85.917 C 138.597 80.543 135.846 71.722 135.846 56.354 L 135.846 47.1 L 152.28 47.1 L 152.28 58.417 C 152.28 73.568 154.753 77.058 165.003 76.368 C 172.295 75.878 172.488 75.986 174.624 81.761 C 176.733 87.463 176.669 87.702 172.652 89.147 C 170.368 89.968 164.506 90.641 159.625 90.641 C 152.084 90.641 149.897 89.931 145.065 85.917 Z M 156.643 41.722 C 145.909 38.1 137.489 28.183 137.489 19.16 C 137.489 16.453 138.546 16 144.853 16 C 151.356 16 152.339 16.459 153.258 19.924 C 154.622 25.064 159.916 28.44 166.614 28.44 C 171.982 28.44 172.001 28.467 172.001 36.215 C 172.001 43.677 171.819 43.987 167.481 43.922 C 164.996 43.884 160.119 42.894 156.643 41.722 Z"
            fill="#000000"
            stroke-width="12"/>
    </g>
</svg>
